X: 9
T: the Brussels Waltz
%%VWML:Button1818-2292c-p5-0
F:http://www.vwml.org/record/Button1818/2292c/p5
B: "Le Sylphe, Twenty Four Country Dances with Figures for the Year 1818", Button & Whitaker, p.5 #1
F: http://www.vwml.org/browse/browse-collections-dance-tune-books/browse-button1818
Z: 2014 John Chambers <jc:trillian.mit.edu>
N: The Figures by Mr WILSON.
M: 3/8
L: 1/16
K: F
% - - - - - - - - - - - - - - - - - - - - - - - - - - - - -
(c'a) |\
f2f2 (c'a) | f2f2 (f'e') | d'2d'2 (e'f') | c'4 (ac') |\
b2b2 ( gb) | a2a2 (fa) | agbgeg | f4 :|
|: ef |\
(ge)(ge)(c'b) | ac'f'e'd'c' | (bg)(bg)(af) | gedcef |\
(ge)(ge)(c'b) | ac'f'e'd'c' | (bg)(bg)(af) | "_D.C."g4 |]
% - - - - - - - - - - Dance description - - - - - - - - - -
W: WALTZ FIGURE      (1st strain repeated 2d play'd straight thro' & D.C.)
W:
W:Swing with right hands round one Cu: then with left |: swing corners |.
W:turn your partner and lead thro' the top couple |. .
W:
W: COUNTRY DANCE FIGURE        (Tune play'd as mark'd)
W:
W:Set & hands across with 2d Cu: & back again |: promenade 3 Cu: |.
W:lead down the middle up again and turn your partner |. .
W:
%%sep 1 1 450
T: Belc\'ele
%R: waltz
B: "Le Sylphe, Twenty Four Country Dances with Figures for the Year 1818", Button & Whitaker, p.5 #2
F: http://www.vwml.org/browse/browse-collections-dance-tune-books/browse-button1818
Z: 2014 John Chambers <jc:trillian.mit.edu>
N: The Figures by Mr WILSON.
M: 3/4
L: 1/8
K: C
% - - - - - - - - - - - - - - - - - - - - - - - - - - - - -
|:\
(e2d2c2) | d4G2 | (Geed)c2 | (Gffe)d2 |\
(e2d2c2) | d4g2 | ^fac'2f2 | (gb)(ba)g2 :|
|:\
(df)fed2 | ec'c'4 | .b.d'(d'c').b.d' | .c'.b.a.g.f.e |\
(dffe)d2 | ec'c'4 | (bd'd'c'd'b) | c'2z2z2 :|
|:\
c2cdcB | (Aagfef) | d2dedc | Bbagfg |\
c2c'd'c'b | agfedc | Bdfgbd' | c'2z2z2 :|
% - - - - - - - - - - Dance description - - - - - - - - - -
W: WALTZ FIGURE        (Each strain repeated)
W:
W:The 3 Gent: & 3 Ladies set to each other with waltz setting step |:
W:waltz whole poussette |: lead thro' bottom & chain figure 4 round at top |:
W:
W: COUNTRY DANCE FIGURE        (Each strain repeated)
W:
W:Set & hands across quite round with 2d Cu: set & back again |: cross
W:over 2 Cu: |: cross up one Cu: & half figure round the top Cu: |: .
W:
%%sep 1 1 450
